material/.icons/material/language-xaml.svg

<svg xmlns="http://www.w3.org/2000/svg" viewBox="0 0 24 24"><path d="M16.93 7.9l2.38 4.1-2.36 4.09-.62-1.09 1.47-2.5c.17-.31.17-.67 0-.96L16.32 9l.61-1.1m-.01-1.33a.12.12 0 00-.09.05l-1.27 2.25c-.06.07-.06.13 0 .22l1.62 2.81c.04.07.04.15 0 .22l-1.61 2.79c-.04.06-.04.15 0 .22l1.28 2.23c.02.04.06.06.09.06.06 0 .06-.02.1-.06L20 12.23c.08-.14.08-.31 0-.44l-3-5.17c0-.03-.04-.05-.08-.05m4.99 5.1l-4.68-8.09a.676.676 0 00-.57-.33H7.28c-.23 0-.45.13-.57.33L2 11.67a.84.84 0 000 .66l4.71 8.09c.12.2.34.33.57.33h9.38c.23 0 .45-.13.57-.33l4.68-8.09a.65.65 0 000-.66M7.3 3.95h8.82l-4.36 7.7H6.93l3.94-6.83c.04-.07-.01-.16-.09-.16l-2.57-.01c-.08 0-.15.05-.21.11l-3.96 6.89h-1.2l4.46-7.7m-1.13 8.51l3.57 6.17H8.5l-3.63-6.28-.2-.35.2-.35L8.5 5.37h1.23l-3.56 6.16-.06.12c-.08.23-.08.48.01.7.01.04.03.08.05.11m1.13 7.59l-4.45-7.7h1.2l3.98 6.88c.04.07.11.11.19.11h2.57c.08 0 .13-.09.09-.16l-3.94-6.83h4.83l4.4 7.7H7.3m9.5-.3L12.37 12l4.41-7.79L21.29 12l-4.49 7.75z"/></svg>

<?xml version="1.0" encoding="UTF-8"?><!DOCTYPE svg PUBLIC "-//W3C//DTD SVG 1.1//EN" "http://www.w3.org/Graphics/SVG/1.1/DTD/svg11.dtd"><svg xmlns="http://www.w3.org/2000/svg" xmlns:xlink="http://www.w3.org/1999/xlink" version="1.1" id="mdi-language-xaml" width="24" height="24" viewBox="0 0 24 24"><path d="M16.93 7.9L19.31 12L16.95 16.09L16.33 15L17.8 12.5C17.97 12.19 17.97 11.83 17.8 11.54L16.32 9L16.93 7.9M16.92 6.57C16.89 6.57 16.85 6.59 16.83 6.62L15.56 8.87C15.5 8.94 15.5 9 15.56 9.09L17.18 11.9C17.22 11.97 17.22 12.05 17.18 12.12L15.57 14.91C15.53 14.97 15.53 15.06 15.57 15.13L16.85 17.36C16.87 17.4 16.91 17.42 16.94 17.42C17 17.42 17 17.4 17.04 17.36L20 12.23C20.08 12.09 20.08 11.92 20 11.79L17 6.62C17 6.59 16.96 6.57 16.92 6.57M21.91 11.67L17.23 3.58C17.11 3.38 16.89 3.25 16.66 3.25H7.28C7.05 3.25 6.83 3.38 6.71 3.58L2 11.67C1.91 11.87 1.91 12.13 2 12.33L6.71 20.42C6.83 20.62 7.05 20.75 7.28 20.75H16.66C16.89 20.75 17.11 20.62 17.23 20.42L21.91 12.33C22.03 12.13 22.03 11.88 21.91 11.67M7.3 3.95H16.12L11.76 11.65H6.93L10.87 4.82C10.91 4.75 10.86 4.66 10.78 4.66L8.21 4.65C8.13 4.65 8.06 4.7 8 4.76L4.04 11.65H2.84L7.3 3.95M6.17 12.46L9.74 18.63L8.5 18.63L4.87 12.35L4.67 12L4.87 11.65L8.5 5.37L9.73 5.37L6.17 11.53C6.15 11.57 6.13 11.61 6.11 11.65C6.03 11.88 6.03 12.13 6.12 12.35C6.13 12.39 6.15 12.43 6.17 12.46M7.3 20.05L2.85 12.35H4.05L8.03 19.23C8.07 19.3 8.14 19.34 8.22 19.34L10.79 19.34C10.87 19.34 10.92 19.25 10.88 19.18L6.94 12.35H11.77L16.17 20.05H7.3M16.8 19.75L12.37 12L16.78 4.21L21.29 12L16.8 19.75Z" /></svg>
